X: 194
T: Harry Schaefer's Varsoviana No 1
B: australian dance tunes
M:3/4
L:1/8
Q: 1/4=100
K:D
V:1 
A2||f>e d2 F2|A4 A2|f>e d>f b>f|a4 f2|g>f e2 d2|c4 A2|a>g b>a g>e|f4 A2|!
f>e d2 F2|A4 A2|f>e d>f b>f|a4 f2|g>f e2 d2|c4 A2|a>^g b>a f>e|d4:|!
A>d||f>d f2 A>d|f>d f2 A>d|f>d f>d g>f|e4 A>c|e>c e2 A>d|e>c e2 A>d|e>c e>c f>e|!
d4 A>d|f>d f2 A>d|f>d g2 A>d|f>d f>d g>f|e4 A>c|e>c e2 A>d|e>c e2 A>d|e>
c e>c f>e|d4:|
% abcbook-tune_id 62a07850ede52c2bf826653b


% abcbook-boost 0
% abcbook-tablature 
% abcbook-transpose 
% abcbook-lastupdated 1654683750278
% abcbook-soundfonts 
% abcbook-repeats 1


